X:2062
T:Blenheim House
R:Reel
C:Trad.
O:England
Z:Paul Hardy's Possible Tunebook 2015 (see www.paulhardy.net). Creative Commons cc by-nc-sa licenced.
M:4/4
L:1/8
Q:1/4=180
K:D
FG|("D"A4 A3)B|AGFE D2d2|"A"c2B2 "D"c2d2|"A"e6 f2|"G"g4 "D"f4|"G"gfed cBAG|"D"F2A2"A7"E2c2|"D"d6:|
cd|("A"e4 e3)f|edcB A2c2 | "D"d2c2 d2e2 |f4-fedc | "G"B2g2 "D"A2f2 | "G"BdgB "D"A2f2|"G"gfed c3B|"Bm"B6 AG|
"D"FGAB A2d2|AGFE D2 de|"A"c2B2 c2d2|e6 fg|"D"afaf d2A2|dAdA F2A2|d3e "A7"e3d|"D"d6||

